; generated by Slic3r Prusa Edition 1.41.0+win64 on 2019-12-29 at 20:28:11

; 

; external perimeters extrusion width = 0.45mm
; perimeters extrusion width = 0.45mm
; infill extrusion width = 0.45mm
; solid infill extrusion width = 0.45mm
; top infill extrusion width = 0.40mm

M107
M80 ; turn on PSU
M190 S50
M104 S190 ; start E heating
M17; enable motors
G28 X Y Z ; Home
G29 ; Autolevel
M109 S190
G90
G0 X0 Y0 F5000
G0 Z0 F5000
G91
G1 E8 F200
G90
; Filament gcode
G21 ; set units to millimeters
G90 ; use absolute coordinates
M82 ; use absolute distances for extrusion
G92 E0
G1 Z0.200 F5400.000
G1 E-1.00000 F3000.00000
G92 E0
G1 X88.187 Y75.219 F5400.000
G1 E1.00000 F3000.00000
G1 F1200
G1 X89.402 Y74.064 E1.05275
G1 X91.041 Y72.857 E1.11684
G1 X92.889 Y71.872 E1.18275
G1 X94.342 Y71.306 E1.23183
G1 X95.891 Y70.899 E1.28225
G1 X98.051 Y70.615 E1.35082
G1 X257.190 Y67.631 E6.36133
G1 X259.297 Y67.871 E6.42807
G1 X261.345 Y68.425 E6.49484
G1 X262.785 Y69.005 E6.54372
G1 X264.215 Y69.783 E6.59497
G1 X266.079 Y71.148 E6.66770
G1 X267.209 Y72.222 E6.71678
G1 X268.233 Y73.447 E6.76704
G1 X269.397 Y75.251 E6.83461
G1 X270.135 Y76.826 E6.88937
G1 X270.642 Y78.356 E6.94012
G1 X271.075 Y80.610 E7.01235
G1 X271.167 Y82.117 E7.05991
G1 X273.941 Y204.228 E10.90486
G1 X273.829 Y205.965 E10.95964
G1 X273.534 Y207.560 E11.01073
G1 X272.808 Y209.781 E11.08428
G1 X272.115 Y211.225 E11.13470
G1 X271.144 Y212.751 E11.19163
G1 X269.998 Y214.136 E11.24822
G1 X268.783 Y215.290 E11.30097
G1 X267.145 Y216.498 E11.36506
G1 X265.302 Y217.481 E11.43080
G1 X263.844 Y218.048 E11.48005
G1 X262.300 Y218.454 E11.53030
G1 X260.162 Y218.739 E11.59821
G1 X100.829 Y222.653 E16.61543
G1 X99.184 Y222.642 E16.66720
G1 X97.395 Y222.415 E16.72396
G1 X95.643 Y221.967 E16.78089
G1 X94.126 Y221.378 E16.83214
G1 X92.080 Y220.249 E16.90570
G1 X90.774 Y219.285 E16.95678
G1 X89.406 Y217.984 E17.01620
G1 X88.321 Y216.666 E17.06996
G1 X87.465 Y215.337 E17.11971
G1 X86.548 Y213.449 E17.18579
G1 X85.920 Y211.440 E17.25203
G1 X85.633 Y209.886 E17.30178
G1 X85.523 Y208.241 E17.35370
G1 X84.244 Y85.202 E21.22708
G1 X84.355 Y83.406 E21.28374
G1 X84.648 Y81.810 E21.33482
G1 X85.373 Y79.583 E21.40854
G1 X86.068 Y78.134 E21.45912
G1 X87.042 Y76.604 E21.51622
G1 X88.149 Y75.265 E21.57092
G1 X88.462 Y75.524 F5400.000
G1 F1200
G1 X89.678 Y74.364 E21.62379
G1 X91.256 Y73.202 E21.68550
G1 X93.039 Y72.250 E21.74912
G1 X94.470 Y71.693 E21.79746
G1 X95.985 Y71.296 E21.84676
G1 X98.068 Y71.021 E21.91292
G1 X257.190 Y68.039 E26.92285
G1 X259.218 Y68.270 E26.98710
G1 X261.195 Y68.803 E27.05156
G1 X262.613 Y69.375 E27.09969
G1 X264.007 Y70.133 E27.14963
G1 X265.804 Y71.449 E27.21975
G1 X266.914 Y72.502 E27.26794
G1 X267.912 Y73.696 E27.31692
G1 X269.035 Y75.437 E27.38212
G1 X269.755 Y76.974 E27.43557
G1 X270.253 Y78.475 E27.48534
G1 X270.669 Y80.643 E27.55483
G1 X270.760 Y82.127 E27.60163
G1 X273.534 Y204.219 E31.44600
G1 X273.425 Y205.917 E31.49956
G1 X273.136 Y207.477 E31.54950
G1 X272.437 Y209.613 E31.62026
G1 X271.763 Y211.021 E31.66940
G1 X270.816 Y212.509 E31.72491
G1 X269.699 Y213.860 E31.78010
G1 X268.508 Y214.990 E31.83179
G1 X266.929 Y216.153 E31.89351
G1 X265.147 Y217.105 E31.95712
G1 X263.716 Y217.662 E32.00546
G1 X262.206 Y218.058 E32.05460
G1 X260.143 Y218.332 E32.12013
G1 X100.820 Y222.246 E37.13701
G1 X99.213 Y222.236 E37.18759
G1 X97.469 Y222.014 E37.24295
G1 X95.765 Y221.579 E37.29830
G1 X94.282 Y221.002 E37.34840
G1 X92.314 Y219.916 E37.41915
G1 X91.042 Y218.978 E37.46893
G1 X89.705 Y217.707 E37.52699
G1 X88.648 Y216.424 E37.57932
G1 X87.809 Y215.119 E37.62813
G1 X86.928 Y213.301 E37.69175
G1 X86.319 Y211.358 E37.75584
G1 X86.037 Y209.833 E37.80466
G1 X85.929 Y208.225 E37.85540
G1 X84.651 Y85.205 E41.72819
G1 X84.759 Y83.453 E41.78346
G1 X85.047 Y81.893 E41.83340
G1 X85.744 Y79.751 E41.90431
G1 X86.422 Y78.334 E41.95377
G1 X87.369 Y76.846 E42.00928
G1 X88.424 Y75.570 E42.06140
; PURGING FINISHED
G1 F4320
G1 X89.462 Y74.572 E41.11140
G1 E41.06140 F3000.00000
G92 E0
G1 X249.758 Y82.222 F5400.000
G1 E1.00000 F3000.00000
G1 F1200
G1 X249.812 Y81.370 E1.02688
G1 X249.972 Y80.531 E1.05376
G1 X250.235 Y79.719 E1.08064
G1 X250.599 Y78.947 E1.10751
G1 X251.057 Y78.226 E1.13439
G1 X251.601 Y77.568 E1.16127
G1 X252.223 Y76.984 E1.18815
G1 X252.914 Y76.482 E1.21503
G1 X253.662 Y76.070 E1.24190
G1 X254.456 Y75.756 E1.26878
G1 X255.283 Y75.544 E1.29566
G1 X256.130 Y75.437 E1.32254
G1 X256.984 Y75.437 E1.34942
G1 X257.831 Y75.544 E1.37630
G1 X258.658 Y75.756 E1.40317
G1 X259.452 Y76.070 E1.43005
G1 X260.200 Y76.482 E1.45693
G1 X260.891 Y76.984 E1.48381
G1 X261.513 Y77.568 E1.51069
G1 X262.059 Y78.227 E1.53761
G1 X262.520 Y78.957 E1.56481
G1 X262.879 Y79.719 E1.59132
G1 X263.143 Y80.531 E1.61820
G1 X263.303 Y81.370 E1.64508
G1 X263.356 Y82.222 E1.67195
G1 X263.303 Y83.074 E1.69883
G1 X263.143 Y83.913 E1.72571
G1 X262.878 Y84.727 E1.75263
G1 X262.509 Y85.508 E1.77983
G1 X262.058 Y86.219 E1.80634
G1 X261.513 Y86.877 E1.83322
G1 X260.891 Y87.461 E1.86010
G1 X260.200 Y87.963 E1.88698
G1 X259.452 Y88.374 E1.91386
G1 X258.658 Y88.689 E1.94073
G1 X257.831 Y88.901 E1.96761
G1 X256.984 Y89.008 E1.99449
G1 X256.130 Y89.008 E2.02137
G1 X255.283 Y88.901 E2.04825
G1 X254.456 Y88.689 E2.07513
G1 X253.662 Y88.374 E2.10200
G1 X252.914 Y87.963 E2.12888
G1 X252.223 Y87.461 E2.15576
G1 X251.601 Y86.877 E2.18264
G1 X251.056 Y86.218 E2.20956
G1 X250.594 Y85.487 E2.23676
G1 X250.235 Y84.725 E2.26327
G1 X249.972 Y83.913 E2.29015
G1 X249.812 Y83.074 E2.31703
G1 X249.762 Y82.282 E2.34202
G1 X250.168 Y82.257 F5400.000
G1 F1200
G1 X250.216 Y81.421 E2.36836
G1 X250.367 Y80.633 E2.39362
G1 X250.615 Y79.870 E2.41889
G1 X250.956 Y79.143 E2.44416
G1 X251.387 Y78.466 E2.46942
G1 X251.898 Y77.847 E2.49469
G1 X252.483 Y77.298 E2.51995
G1 X253.133 Y76.826 E2.54522
G1 X253.836 Y76.439 E2.57048
G1 X254.582 Y76.144 E2.59575
G1 X255.360 Y75.944 E2.62102
G1 X256.156 Y75.844 E2.64628
G1 X256.958 Y75.844 E2.67155
G1 X257.755 Y75.944 E2.69681
G1 X258.532 Y76.144 E2.72208
G1 X259.278 Y76.439 E2.74735
G1 X259.982 Y76.826 E2.77261
G1 X260.631 Y77.298 E2.79788
G1 X261.216 Y77.847 E2.82314
G1 X261.728 Y78.466 E2.84844
G1 X262.163 Y79.154 E2.87403
G1 X262.500 Y79.870 E2.89894
G1 X262.748 Y80.633 E2.92420
G1 X262.898 Y81.421 E2.94947
G1 X262.948 Y82.222 E2.97474
G1 X262.898 Y83.023 E3.00000
G1 X262.748 Y83.812 E3.02527
G1 X262.499 Y84.576 E3.05056
G1 X262.152 Y85.311 E3.07615
G1 X261.728 Y85.979 E3.10106
G1 X261.216 Y86.597 E3.12633
G1 X260.631 Y87.147 E3.15159
G1 X259.982 Y87.619 E3.17686
G1 X259.278 Y88.005 E3.20213
G1 X258.532 Y88.301 E3.22739
G1 X257.755 Y88.500 E3.25266
G1 X256.958 Y88.601 E3.27792
G1 X256.156 Y88.601 E3.30319
G1 X255.360 Y88.500 E3.32845
G1 X254.582 Y88.301 E3.35372
G1 X253.836 Y88.005 E3.37899
G1 X253.133 Y87.619 E3.40425
G1 X252.483 Y87.147 E3.42952
G1 X251.898 Y86.597 E3.45478
G1 X251.386 Y85.978 E3.48008
G1 X250.952 Y85.291 E3.50567
G1 X250.615 Y84.575 E3.53058
G1 X250.367 Y83.812 E3.55584
G1 X250.216 Y83.023 E3.58111
G1 X250.172 Y82.317 E3.60341
G1 X250.578 Y82.291 F5400.000
G1 F1200
G1 X250.621 Y81.472 E3.62921
G1 X250.762 Y80.734 E3.65286
G1 X250.994 Y80.020 E3.67651
G1 X251.314 Y79.340 E3.70017
G1 X251.717 Y78.705 E3.72382
G1 X252.195 Y78.126 E3.74747
G1 X252.743 Y77.612 E3.77113
G1 X253.351 Y77.170 E3.79478
G1 X254.010 Y76.808 E3.81843
G1 X254.708 Y76.532 E3.84209
G1 X255.436 Y76.345 E3.86574
G1 X256.181 Y76.251 E3.88940
G1 X256.933 Y76.251 E3.91305
G1 X257.678 Y76.345 E3.93670
G1 X258.406 Y76.532 E3.96036
G1 X259.105 Y76.808 E3.98401
G1 X259.763 Y77.170 E4.00766
G1 X260.371 Y77.612 E4.03131
G1 X260.919 Y78.126 E4.05497
G1 X261.398 Y78.706 E4.07864
G1 X261.805 Y79.350 E4.10262
G1 X262.120 Y80.020 E4.12593
G1 X262.352 Y80.734 E4.14958
G1 X262.493 Y81.472 E4.17323
G1 X262.540 Y82.222 E4.19689
G1 X262.493 Y82.972 E4.22054
G1 X262.352 Y83.710 E4.24419
G1 X262.120 Y84.426 E4.26787
G1 X261.794 Y85.114 E4.29184
G1 X261.398 Y85.739 E4.31515
G1 X260.919 Y86.318 E4.33880
G1 X260.371 Y86.833 E4.36246
G1 X259.763 Y87.274 E4.38611
G1 X259.105 Y87.636 E4.40976
G1 X258.406 Y87.913 E4.43342
G1 X257.678 Y88.100 E4.45707
G1 X256.933 Y88.194 E4.48072
G1 X256.181 Y88.194 E4.50438
G1 X255.436 Y88.100 E4.52803
G1 X254.708 Y87.913 E4.55168
G1 X254.010 Y87.636 E4.57534
G1 X253.351 Y87.274 E4.59899
G1 X252.743 Y86.833 E4.62264
G1 X252.195 Y86.318 E4.64630
G1 X251.716 Y85.739 E4.66997
G1 X251.309 Y85.095 E4.69395
G1 X250.994 Y84.425 E4.71726
G1 X250.762 Y83.710 E4.74091
G1 X250.621 Y82.972 E4.76456
G1 X250.582 Y82.351 E4.78416
G1 X250.988 Y82.325 F5400.000
G1 F1200
G1 X251.026 Y81.524 E4.80943
G1 X251.157 Y80.836 E4.83147
G1 X251.373 Y80.170 E4.85351
G1 X251.671 Y79.536 E4.87555
G1 X252.046 Y78.945 E4.89759
G1 X252.493 Y78.406 E4.91963
G1 X253.003 Y77.926 E4.94167
G1 X253.570 Y77.515 E4.96371
G1 X254.183 Y77.178 E4.98576
G1 X254.834 Y76.920 E5.00780
G1 X255.512 Y76.746 E5.02984
G1 X256.207 Y76.658 E5.05188
G1 X256.907 Y76.658 E5.07392
G1 X257.602 Y76.746 E5.09596
G1 X258.280 Y76.920 E5.11800
G1 X258.931 Y77.178 E5.14004
G1 X259.545 Y77.515 E5.16208
G1 X260.111 Y77.926 E5.18412
G1 X260.621 Y78.406 E5.20616
G1 X261.068 Y78.945 E5.22821
G1 X261.447 Y79.546 E5.25058
G1 X261.741 Y80.170 E5.27228
G1 X261.957 Y80.836 E5.29433
G1 X262.089 Y81.524 E5.31637
G1 X262.133 Y82.222 E5.33841
G1 X262.089 Y82.921 E5.36045
G1 X261.957 Y83.609 E5.38249
G1 X261.741 Y84.275 E5.40454
G1 X261.437 Y84.917 E5.42690
G1 X261.068 Y85.499 E5.44861
G1 X260.621 Y86.039 E5.47065
G1 X260.111 Y86.518 E5.49269
G1 X259.545 Y86.930 E5.51473
G1 X258.931 Y87.267 E5.53677
G1 X258.280 Y87.525 E5.55881
G1 X257.602 Y87.699 E5.58086
G1 X256.907 Y87.787 E5.60290
G1 X256.207 Y87.787 E5.62494
G1 X255.512 Y87.699 E5.64698
G1 X254.834 Y87.525 E5.66902
G1 X254.183 Y87.267 E5.69106
G1 X253.570 Y86.930 E5.71310
G1 X253.003 Y86.518 E5.73514
G1 X252.493 Y86.039 E5.75718
G1 X252.046 Y85.499 E5.77923
G1 X251.667 Y84.899 E5.80159
G1 X251.373 Y84.275 E5.82330
G1 X251.157 Y83.609 E5.84534
G1 X251.026 Y82.921 E5.86738
G1 X250.992 Y82.385 E5.88429
G1 X250.639 Y82.130 F5400.000
G1 F4320
G1 X251.026 Y81.524 E5.31542
G1 X251.134 Y80.956 E4.93429
G1 E4.88429 F3000.00000
G92 E0
G1 X248.006 Y82.222 F5400.000
G1 E1.00000 F3000.00000
G1 F1200
G1 X248.074 Y81.151 E1.03380
G1 X248.275 Y80.096 E1.06761
G1 X248.607 Y79.075 E1.10141
G1 X249.064 Y78.103 E1.13521
G1 X249.639 Y77.196 E1.16902
G1 X250.324 Y76.369 E1.20282
G1 X251.107 Y75.634 E1.23662
G1 X251.975 Y75.003 E1.27043
G1 X252.916 Y74.485 E1.30423
G1 X253.915 Y74.090 E1.33804
G1 X254.955 Y73.823 E1.37184
G1 X256.020 Y73.688 E1.40564
G1 X257.094 Y73.688 E1.43945
G1 X258.159 Y73.823 E1.47325
G1 X259.199 Y74.090 E1.50705
G1 X260.198 Y74.485 E1.54086
G1 X261.139 Y75.003 E1.57466
G1 X262.008 Y75.634 E1.60846
G1 X262.790 Y76.369 E1.64227
G1 X263.475 Y77.196 E1.67607
G1 X264.050 Y78.103 E1.70987
G1 X264.508 Y79.075 E1.74368
G1 X264.839 Y80.096 E1.77748
G1 X265.041 Y81.151 E1.81129
G1 X265.108 Y82.222 E1.84509
G1 X265.041 Y83.294 E1.87889
G1 X264.839 Y84.349 E1.91270
G1 X264.508 Y85.370 E1.94650
G1 X264.050 Y86.342 E1.98030
G1 X263.475 Y87.248 E2.01411
G1 X262.790 Y88.076 E2.04791
G1 X262.008 Y88.811 E2.08171
G1 X261.139 Y89.442 E2.11552
G1 X260.198 Y89.959 E2.14932
G1 X259.199 Y90.355 E2.18312
G1 X258.159 Y90.622 E2.21693
G1 X257.094 Y90.756 E2.25073
G1 X256.020 Y90.756 E2.28454
G1 X254.955 Y90.622 E2.31834
G1 X253.915 Y90.355 E2.35214
G1 X252.916 Y89.959 E2.38595
G1 X251.975 Y89.442 E2.41975
G1 X251.107 Y88.811 E2.45355
G1 X250.324 Y88.076 E2.48736
G1 X249.639 Y87.248 E2.52116
G1 X249.064 Y86.342 E2.55496
G1 X248.607 Y85.370 E2.58877
G1 X248.275 Y84.349 E2.62257
G1 X248.074 Y83.294 E2.65637
G1 X248.010 Y82.282 E2.68829
G1 X247.604 Y82.308 F5400.000
G1 F1200
G1 X247.669 Y81.099 E2.72638
G1 X247.880 Y79.994 E2.76180
G1 X248.227 Y78.924 E2.79721
G1 X248.706 Y77.906 E2.83263
G1 X249.309 Y76.956 E2.86804
G1 X250.026 Y76.090 E2.90346
G1 X250.847 Y75.319 E2.93888
G1 X251.757 Y74.658 E2.97429
G1 X252.743 Y74.116 E3.00971
G1 X253.789 Y73.702 E3.04512
G1 X254.878 Y73.422 E3.08054
G1 X255.995 Y73.281 E3.11596
G1 X257.120 Y73.281 E3.15137
G1 X258.236 Y73.422 E3.18679
G1 X259.326 Y73.702 E3.22220
G1 X260.372 Y74.116 E3.25762
G1 X261.357 Y74.658 E3.29304
G1 X262.268 Y75.319 E3.32845
G1 X263.088 Y76.090 E3.36387
G1 X263.805 Y76.956 E3.39928
G1 X264.408 Y77.906 E3.43470
G1 X264.887 Y78.924 E3.47012
G1 X265.234 Y79.994 E3.50553
G1 X265.445 Y81.099 E3.54095
G1 X265.516 Y82.222 E3.57636
G1 X265.445 Y83.345 E3.61178
G1 X265.234 Y84.450 E3.64720
G1 X264.887 Y85.520 E3.68261
G1 X264.408 Y86.538 E3.71803
G1 X263.805 Y87.488 E3.75344
G1 X263.088 Y88.355 E3.78886
G1 X262.268 Y89.125 E3.82428
G1 X261.357 Y89.786 E3.85969
G1 X260.372 Y90.328 E3.89511
G1 X259.326 Y90.743 E3.93052
G1 X258.236 Y91.022 E3.96594
G1 X257.120 Y91.163 E4.00136
G1 X255.995 Y91.163 E4.03677
G1 X254.878 Y91.022 E4.07219
G1 X253.789 Y90.743 E4.10761
G1 X252.743 Y90.328 E4.14302
G1 X251.757 Y89.786 E4.17844
G1 X250.847 Y89.125 E4.21385
G1 X250.026 Y88.355 E4.24927
G1 X249.309 Y87.488 E4.28469
G1 X248.706 Y86.538 E4.32010
G1 X248.227 Y85.520 E4.35552
G1 X247.880 Y84.450 E4.39093
G1 X247.669 Y83.345 E4.42635
G1 X247.607 Y82.368 E4.45718
G1 X247.201 Y82.393 F5400.000
G1 F1200
G1 X247.190 Y82.222 E4.46257
G1 X247.264 Y81.048 E4.49960
G1 X247.485 Y79.893 E4.53663
G1 X247.848 Y78.774 E4.57366
G1 X248.349 Y77.710 E4.61069
G1 X248.979 Y76.717 E4.64771
G1 X249.729 Y75.810 E4.68474
G1 X250.587 Y75.005 E4.72177
G1 X251.538 Y74.314 E4.75880
G1 X252.569 Y73.747 E4.79583
G1 X253.663 Y73.314 E4.83286
G1 X254.802 Y73.022 E4.86988
G1 X255.969 Y72.874 E4.90691
G1 X257.145 Y72.874 E4.94394
G1 X258.312 Y73.022 E4.98097
G1 X259.452 Y73.314 E5.01800
G1 X260.545 Y73.747 E5.05503
G1 X261.576 Y74.314 E5.09206
G1 X262.528 Y75.005 E5.12908
G1 X263.385 Y75.810 E5.16611
G1 X264.135 Y76.717 E5.20314
G1 X264.765 Y77.710 E5.24017
G1 X265.266 Y78.774 E5.27720
G1 X265.630 Y79.893 E5.31423
G1 X265.850 Y81.048 E5.35125
G1 X265.924 Y82.222 E5.38828
G1 X265.850 Y83.396 E5.42531
G1 X265.630 Y84.552 E5.46234
G1 X265.266 Y85.670 E5.49937
G1 X264.765 Y86.735 E5.53640
G1 X264.135 Y87.728 E5.57343
G1 X263.385 Y88.634 E5.61045
G1 X262.528 Y89.439 E5.64748
G1 X261.576 Y90.131 E5.68451
G1 X260.545 Y90.698 E5.72154
G1 X259.452 Y91.131 E5.75857
G1 X258.312 Y91.423 E5.79560
G1 X257.145 Y91.571 E5.83262
G1 X255.969 Y91.571 E5.86965
G1 X254.802 Y91.423 E5.90668
G1 X253.663 Y91.131 E5.94371
G1 X252.569 Y90.698 E5.98074
G1 X251.538 Y90.131 E6.01777
G1 X250.587 Y89.439 E6.05480
G1 X249.729 Y88.634 E6.09182
G1 X248.979 Y87.728 E6.12885
G1 X248.349 Y86.735 E6.16588
G1 X247.848 Y85.670 E6.20291
G1 X247.485 Y84.552 E6.23994
G1 X247.264 Y83.396 E6.27697
G1 X247.205 Y82.453 E6.30672
G1 X246.783 Y82.222 F5400.000
G1 F1200
G1 X246.860 Y80.997 E6.34536
G1 X247.090 Y79.791 E6.38400
G1 X247.469 Y78.624 E6.42264
G1 X247.992 Y77.513 E6.46128
G1 X248.649 Y76.477 E6.49992
G1 X249.432 Y75.531 E6.53856
G1 X250.327 Y74.691 E6.57720
G1 X251.320 Y73.969 E6.61584
G1 X252.395 Y73.378 E6.65448
G1 X253.537 Y72.926 E6.69313
G1 X254.726 Y72.621 E6.73177
G1 X255.943 Y72.467 E6.77041
G1 X257.171 Y72.467 E6.80905
G1 X258.389 Y72.621 E6.84769
G1 X259.578 Y72.926 E6.88633
G1 X260.719 Y73.378 E6.92497
G1 X261.795 Y73.969 E6.96361
G1 X262.788 Y74.691 E7.00225
G1 X263.682 Y75.531 E7.04089
G1 X264.465 Y76.477 E7.07953
G1 X265.123 Y77.513 E7.11818
G1 X265.645 Y78.624 E7.15682
G1 X266.025 Y79.791 E7.19546
G1 X266.255 Y80.997 E7.23410
G1 X266.332 Y82.222 E7.27274
G1 X266.255 Y83.447 E7.31138
G1 X266.025 Y84.653 E7.35002
G1 X265.645 Y85.821 E7.38866
G1 X265.123 Y86.931 E7.42730
G1 X264.465 Y87.968 E7.46594
G1 X263.682 Y88.913 E7.50458
G1 X262.788 Y89.754 E7.54323
G1 X261.795 Y90.475 E7.58187
G1 X260.719 Y91.067 E7.62051
G1 X259.578 Y91.518 E7.65915
G1 X258.389 Y91.824 E7.69779
G1 X257.171 Y91.978 E7.73643
G1 X255.943 Y91.978 E7.77507
G1 X254.726 Y91.824 E7.81371
G1 X253.537 Y91.518 E7.85235
G1 X252.395 Y91.067 E7.89099
G1 X251.320 Y90.475 E7.92963
G1 X250.327 Y89.754 E7.96828
G1 X249.432 Y88.913 E8.00692
G1 X248.649 Y87.968 E8.04556
G1 X247.992 Y86.931 E8.08420
