; generated by Slic3r Prusa Edition 1.41.0+win64 on 2019-12-29 at 15:25:52

; 

; external perimeters extrusion width = 0.45mm
; perimeters extrusion width = 0.45mm
; infill extrusion width = 0.45mm
; solid infill extrusion width = 0.45mm
; top infill extrusion width = 0.40mm

M107
M80 ; turn on PSU
M190 S40
M104 S230 ; start E heating
M17; enable motors
G28 X Y Z ; Home
G29 ; Autolevel
M109 S230
G90
G0 X0 Y0 F5000
G0 Z0 F5000
G91
G1 E8 F200
G90
; Filament gcode
G21 ; set units to millimeters
G90 ; use absolute coordinates
M82 ; use absolute distances for extrusion
G92 E0
G1 Z0.150 F3600.000
G1 E-2.00000 F3000.00000
G92 E0
G1 X90.277 Y86.466 F3600.000
G1 E2.00000 F3000.00000
G1 F720
G1 X91.055 Y85.912 E2.02363
G1 X91.930 Y85.530 E2.04727
G1 X92.606 Y85.369 E2.06449
G1 X93.294 Y85.311 E2.08157
G1 X116.543 Y85.311 E2.65705
G1 X265.359 Y90.513 E6.34294
G1 X266.143 Y90.613 E6.36252
G1 X266.894 Y90.844 E6.38196
G1 X267.600 Y91.201 E6.40154
G1 X268.234 Y91.673 E6.42111
G1 X268.766 Y92.230 E6.44016
G1 X269.200 Y92.871 E6.45934
G1 X270.192 Y95.164 E6.52118
G1 X270.797 Y97.067 E6.57061
G1 X271.224 Y98.955 E6.61851
G1 X271.544 Y101.308 E6.67729
G1 X277.412 Y212.041 E9.42210
G1 X277.493 Y213.985 E9.47027
G1 X277.411 Y215.950 E9.51895
G1 X277.084 Y218.410 E9.58039
G1 X276.654 Y220.312 E9.62864
G1 X276.006 Y222.331 E9.68114
G1 X275.144 Y224.342 E9.73529
G1 X274.486 Y225.305 E9.76416
G1 X273.821 Y225.921 E9.78661
G1 X273.048 Y226.396 E9.80907
G1 X272.192 Y226.712 E9.83166
G1 X271.296 Y226.854 E9.85411
G1 X247.796 Y226.861 E10.43579
G1 X104.233 Y225.392 E13.98958
G1 X103.426 Y225.306 E14.00968
G1 X102.641 Y225.078 E14.02991
G1 X101.909 Y224.716 E14.05015
G1 X101.251 Y224.230 E14.07038
G1 X100.436 Y223.283 E14.10132
G1 X99.902 Y222.146 E14.13240
G1 X99.303 Y219.757 E14.19337
G1 X98.741 Y216.187 E14.28282
G1 X87.753 Y101.797 E17.12735
G1 X87.567 Y98.181 E17.21698
G1 X87.762 Y94.488 E17.30853
G1 X88.335 Y90.876 E17.39904
G1 X88.778 Y89.034 E17.44594
G1 X89.140 Y87.988 E17.47335
G1 X89.629 Y87.168 E17.49698
G1 X90.236 Y86.510 E17.51913
G1 X92.086 Y85.918 F3600.000
G1 F720
G1 X93.304 Y85.729 E17.54964
G1 X116.543 Y85.729 E18.12486
G1 X265.338 Y90.930 E21.81023
G1 X266.046 Y91.020 E21.82790
G1 X266.733 Y91.230 E21.84569
G1 X267.375 Y91.553 E21.86349
G1 X267.953 Y91.982 E21.88128
G1 X268.445 Y92.498 E21.89895
G1 X268.846 Y93.095 E21.91674
G1 X269.803 Y95.319 E21.97667
G1 X270.395 Y97.181 E22.02504
G1 X270.816 Y99.045 E22.07235
G1 X271.128 Y101.346 E22.12982
G1 X276.995 Y212.062 E24.87421
G1 X277.075 Y213.984 E24.92183
G1 X276.994 Y215.925 E24.96992
G1 X276.678 Y218.313 E25.02955
G1 X276.251 Y220.201 E25.07745
G1 X275.621 Y222.170 E25.12863
G1 X274.782 Y224.133 E25.18148
G1 X274.177 Y225.024 E25.20813
G1 X273.569 Y225.588 E25.22867
G1 X272.857 Y226.024 E25.24934
G1 X272.073 Y226.311 E25.27000
G1 X271.252 Y226.438 E25.29054
G1 X247.798 Y226.444 E25.87112
G1 X104.245 Y224.974 E29.42467
G1 X103.510 Y224.897 E29.44297
G1 X102.795 Y224.690 E29.46138
G1 X102.132 Y224.363 E29.47968
G1 X101.533 Y223.922 E29.49810
G1 X100.779 Y223.044 E29.52674
G1 X100.292 Y221.994 E29.55537
G1 X99.712 Y219.673 E29.61460
G1 X99.157 Y216.144 E29.70304
G1 X88.169 Y101.759 E32.54744
G1 X87.984 Y98.186 E32.63600
G1 X88.176 Y94.542 E32.72632
G1 X88.741 Y90.973 E32.81577
G1 X89.176 Y89.164 E32.86182
G1 X89.502 Y88.201 E32.88698
G1 X89.950 Y87.437 E32.90890
G1 X90.548 Y86.784 E32.93081
G1 X91.273 Y86.268 E32.95285
G1 X92.031 Y85.942 E32.97328
; PURGING FINISHED
G1 F2880
G1 X93.304 Y85.729 E31.69628
G1 X93.934 Y85.729 E31.07328
G1 E30.97328 F3000.00000
G92 E0
G1 X247.394 Y102.875 F3600.000
G1 E2.00000 F3000.00000
G1 F720
G1 X247.474 Y102.369 E2.01268
G1 X247.610 Y101.865 E2.02560
G1 X247.789 Y101.400 E2.03793
G1 X248.021 Y100.945 E2.05058
G1 X248.299 Y100.517 E2.06322
G1 X248.621 Y100.120 E2.07587
G1 X248.982 Y99.759 E2.08851
G1 X249.379 Y99.437 E2.10116
G1 X249.807 Y99.159 E2.11380
G1 X250.262 Y98.927 E2.12645
G1 X250.739 Y98.744 E2.13909
G1 X251.233 Y98.612 E2.15174
G1 X251.737 Y98.532 E2.16438
G1 X252.235 Y98.506 E2.17671
G1 X252.756 Y98.532 E2.18963
G1 X253.262 Y98.612 E2.20231
G1 X253.755 Y98.744 E2.21496
G1 X254.232 Y98.927 E2.22760
G1 X254.688 Y99.159 E2.24025
G1 X255.116 Y99.437 E2.25289
G1 X255.513 Y99.759 E2.26554
G1 X255.874 Y100.120 E2.27818
G1 X256.196 Y100.517 E2.29083
G1 X256.474 Y100.945 E2.30347
G1 X256.706 Y101.400 E2.31611
G1 X256.889 Y101.877 E2.32876
G1 X257.021 Y102.371 E2.34140
G1 X257.101 Y102.875 E2.35405
G1 X257.128 Y103.385 E2.36669
G1 X257.101 Y103.896 E2.37934
G1 X257.021 Y104.400 E2.39198
G1 X256.889 Y104.894 E2.40463
G1 X256.706 Y105.370 E2.41727
G1 X256.474 Y105.826 E2.42992
G1 X256.196 Y106.254 E2.44256
G1 X255.874 Y106.651 E2.45521
G1 X255.513 Y107.012 E2.46785
G1 X255.116 Y107.334 E2.48050
G1 X254.688 Y107.612 E2.49314
G1 X254.232 Y107.844 E2.50579
G1 X253.801 Y108.009 E2.51722
G1 X253.267 Y108.158 E2.53093
G1 X252.757 Y108.239 E2.54371
G1 X252.247 Y108.266 E2.55636
G1 X251.737 Y108.239 E2.56900
G1 X251.233 Y108.159 E2.58165
G1 X250.739 Y108.027 E2.59429
G1 X250.262 Y107.844 E2.60694
G1 X249.807 Y107.612 E2.61958
G1 X249.379 Y107.334 E2.63223
G1 X248.982 Y107.012 E2.64487
G1 X248.621 Y106.651 E2.65752
G1 X248.299 Y106.254 E2.67016
G1 X248.021 Y105.826 E2.68281
G1 X247.789 Y105.370 E2.69545
G1 X247.606 Y104.894 E2.70810
G1 X247.474 Y104.400 E2.72074
G1 X247.394 Y103.896 E2.73338
G1 X247.367 Y103.385 E2.74603
G1 X247.391 Y102.935 E2.75719
G1 X247.808 Y102.957 F3600.000
G1 F720
G1 X247.883 Y102.457 E2.76971
G1 X248.008 Y101.995 E2.78155
G1 X248.171 Y101.571 E2.79281
G1 X248.383 Y101.154 E2.80437
G1 X248.638 Y100.763 E2.81593
G1 X248.931 Y100.400 E2.82749
G1 X249.262 Y100.070 E2.83905
G1 X249.625 Y99.776 E2.85061
G1 X250.016 Y99.521 E2.86217
G1 X250.433 Y99.309 E2.87373
G1 X250.869 Y99.142 E2.88529
G1 X251.320 Y99.021 E2.89685
G1 X251.781 Y98.948 E2.90841
G1 X252.235 Y98.924 E2.91967
G1 X252.713 Y98.948 E2.93151
G1 X253.175 Y99.021 E2.94310
G1 X253.626 Y99.142 E2.95466
G1 X254.062 Y99.309 E2.96622
G1 X254.478 Y99.521 E2.97778
G1 X254.870 Y99.776 E2.98934
G1 X255.233 Y100.070 E3.00090
G1 X255.563 Y100.400 E3.01246
G1 X255.857 Y100.763 E3.02402
G1 X256.112 Y101.154 E3.03558
G1 X256.324 Y101.571 E3.04714
G1 X256.491 Y102.007 E3.05870
G1 X256.612 Y102.458 E3.07026
G1 X256.685 Y102.919 E3.08182
G1 X256.709 Y103.385 E3.09338
G1 X256.685 Y103.852 E3.10495
G1 X256.612 Y104.313 E3.11651
G1 X256.491 Y104.764 E3.12807
G1 X256.324 Y105.200 E3.13963
G1 X256.112 Y105.616 E3.15119
G1 X255.857 Y106.008 E3.16275
G1 X255.563 Y106.371 E3.17431
G1 X255.233 Y106.701 E3.18587
G1 X254.870 Y106.995 E3.19743
G1 X254.478 Y107.250 E3.20899
G1 X254.062 Y107.462 E3.22055
G1 X253.670 Y107.612 E3.23096
G1 X253.178 Y107.749 E3.24359
G1 X252.714 Y107.823 E3.25523
G1 X252.247 Y107.847 E3.26679
G1 X251.781 Y107.823 E3.27835
G1 X251.320 Y107.750 E3.28991
G1 X250.869 Y107.629 E3.30147
G1 X250.433 Y107.462 E3.31303
G1 X250.016 Y107.250 E3.32459
G1 X249.625 Y106.995 E3.33615
G1 X249.262 Y106.701 E3.34771
G1 X248.931 Y106.371 E3.35928
G1 X248.638 Y106.008 E3.37084
G1 X248.383 Y105.616 E3.38240
G1 X248.171 Y105.200 E3.39396
G1 X248.004 Y104.764 E3.40552
G1 X247.883 Y104.313 E3.41708
G1 X247.810 Y103.852 E3.42864
G1 X247.785 Y103.385 E3.44020
G1 X247.805 Y103.017 E3.44933
G1 X248.222 Y103.039 F3600.000
G1 F720
G1 X248.292 Y102.544 E3.46169
G1 X248.406 Y102.125 E3.47245
G1 X248.553 Y101.741 E3.48264
G1 X248.746 Y101.364 E3.49312
G1 X248.976 Y101.009 E3.50359
G1 X249.242 Y100.680 E3.51407
G1 X249.542 Y100.380 E3.52455
G1 X249.871 Y100.114 E3.53502
G1 X250.226 Y99.884 E3.54550
G1 X250.603 Y99.691 E3.55598
G1 X250.998 Y99.540 E3.56645
G1 X251.407 Y99.430 E3.57693
G1 X251.825 Y99.364 E3.58741
G1 X252.236 Y99.342 E3.59760
G1 X252.670 Y99.364 E3.60835
G1 X253.088 Y99.430 E3.61883
G1 X253.497 Y99.540 E3.62931
G1 X253.892 Y99.691 E3.63979
G1 X254.269 Y99.884 E3.65026
G1 X254.624 Y100.114 E3.66074
G1 X254.953 Y100.380 E3.67122
G1 X255.252 Y100.680 E3.68169
G1 X255.519 Y101.009 E3.69217
G1 X255.749 Y101.364 E3.70265
G1 X255.941 Y101.741 E3.71312
G1 X256.093 Y102.136 E3.72360
G1 X256.203 Y102.545 E3.73408
G1 X256.269 Y102.963 E3.74455
G1 X256.291 Y103.385 E3.75503
G1 X256.269 Y103.808 E3.76551
G1 X256.203 Y104.226 E3.77598
G1 X256.093 Y104.635 E3.78646
G1 X255.941 Y105.030 E3.79694
G1 X255.749 Y105.407 E3.80741
G1 X255.519 Y105.762 E3.81789
G1 X255.252 Y106.091 E3.82837
G1 X254.953 Y106.390 E3.83884
G1 X254.624 Y106.657 E3.84932
G1 X254.269 Y106.887 E3.85980
G1 X253.892 Y107.079 E3.87027
G1 X253.539 Y107.215 E3.87965
G1 X253.089 Y107.340 E3.89119
G1 X252.670 Y107.407 E3.90170
G1 X252.247 Y107.429 E3.91218
G1 X251.825 Y107.407 E3.92265
G1 X251.407 Y107.341 E3.93313
G1 X250.998 Y107.231 E3.94361
G1 X250.603 Y107.079 E3.95408
G1 X250.226 Y106.887 E3.96456
G1 X249.871 Y106.657 E3.97504
G1 X249.542 Y106.390 E3.98551
G1 X249.242 Y106.091 E3.99599
G1 X248.976 Y105.762 E4.00647
G1 X248.746 Y105.407 E4.01694
G1 X248.553 Y105.030 E4.02742
G1 X248.402 Y104.635 E4.03790
G1 X248.292 Y104.226 E4.04837
G1 X248.226 Y103.808 E4.05885
G1 X248.204 Y103.385 E4.06933
G1 X248.219 Y103.099 E4.07643
G1 X247.895 Y102.808 F3600.000
G1 F2880
G1 X248.292 Y102.544 E3.52305
G1 X248.406 Y102.125 E3.09315
G1 X248.553 Y101.741 E2.68574
G1 X248.746 Y101.364 E2.26690
G1 X248.795 Y101.287 E2.17643
G1 E2.07643 F3000.00000
G92 E0
G1 X242.780 Y96.196 F3600.000
G1 E2.00000 F3000.00000
G1 F720
G1 X264.463 Y96.196 E2.53672
G1 X264.822 Y97.039 E2.55940
G1 X265.308 Y98.561 E2.59894
G1 X265.660 Y100.138 E2.63894
G1 X265.873 Y101.752 E2.67925
G1 X265.945 Y103.385 E2.71971
G1 X265.873 Y105.019 E2.76017
G1 X265.660 Y106.633 E2.80048
G1 X265.308 Y108.210 E2.84048
G1 X264.822 Y109.731 E2.88002
G1 X264.463 Y110.575 E2.90270
G1 X242.780 Y110.575 E3.43942
G1 X242.527 Y109.518 E3.46633
G1 X242.245 Y107.999 E3.50455
G1 X242.044 Y106.469 E3.54277
G1 X241.936 Y105.102 E3.57669
G1 X241.882 Y103.385 E3.61921
G1 X241.936 Y101.669 E3.66173
G1 X242.044 Y100.302 E3.69566
G1 X242.245 Y98.771 E3.73388
G1 X242.527 Y97.253 E3.77210
G1 X242.766 Y96.254 E3.79752
G1 X242.451 Y95.778 F3600.000
G1 F720
G1 X264.740 Y95.778 E4.34924
G1 X265.214 Y96.894 E4.37924
G1 X265.712 Y98.452 E4.41973
G1 X266.072 Y100.065 E4.46064
G1 X266.290 Y101.716 E4.50186
G1 X266.363 Y103.385 E4.54323
G1 X266.290 Y105.055 E4.58460
G1 X266.072 Y106.706 E4.62582
G1 X265.712 Y108.319 E4.66673
G1 X265.214 Y109.877 E4.70722
G1 X264.740 Y110.993 E4.73722
G1 X242.451 Y110.993 E5.28894
G1 X242.118 Y109.605 E5.32427
G1 X241.832 Y108.065 E5.36303
G1 X241.628 Y106.512 E5.40180
G1 X241.519 Y105.125 E5.43623
G1 X241.464 Y103.385 E5.47932
G1 X241.519 Y101.646 E5.52241
G1 X241.628 Y100.259 E5.55685
G1 X241.832 Y98.706 E5.59561
G1 X242.118 Y97.166 E5.63438
G1 X242.437 Y95.837 E5.66822
G1 X242.080 Y95.535 F3600.000
G1 F720
G1 X242.131 Y95.360 E5.67273
G1 X265.016 Y95.360 E6.23920
G1 X265.606 Y96.748 E6.27653
G1 X266.116 Y98.342 E6.31795
G1 X266.484 Y99.992 E6.35979
G1 X266.707 Y101.679 E6.40192
G1 X266.781 Y103.385 E6.44419
G1 X266.707 Y105.092 E6.48647
G1 X266.484 Y106.779 E6.52859
G1 X266.116 Y108.429 E6.57044
G1 X265.606 Y110.023 E6.61186
G1 X265.016 Y111.410 E6.64918
G1 X242.131 Y111.410 E7.21565
G1 X241.709 Y109.692 E7.25947
G1 X241.420 Y108.130 E7.29877
G1 X241.212 Y106.556 E7.33808
G1 X241.102 Y105.148 E7.37303
G1 X241.046 Y103.385 E7.41669
G1 X241.102 Y101.623 E7.46034
G1 X241.212 Y100.215 E7.49530
G1 X241.420 Y98.641 E7.53460
G1 X241.709 Y97.079 E7.57391
G1 X242.066 Y95.593 E7.61173
G1 X242.256 Y95.488 F3600.000
G1 F2880
G1 X242.131 Y95.360 E7.37211
G1 X243.809 Y95.360 E5.71173
G1 E5.61173 F3000.00000
G92 E0
G1 X243.772 Y110.395 F3600.000
G1 E2.00000 F3000.00000
G1 F720
G1 X242.908 Y109.531 E2.03032
G1 X242.767 Y108.798 E2.04882
G1 X244.176 Y110.207 E2.09823
G1 X244.768 Y110.207 E2.11291
G1 X242.632 Y108.071 E2.18781
G1 X242.535 Y107.382 E2.20508
G1 X245.360 Y110.207 E2.30416
G1 X245.952 Y110.207 E2.31883
G1 X242.445 Y106.700 E2.44182
G1 X242.379 Y106.042 E2.45821
G1 X246.544 Y110.207 E2.60427
G1 X247.136 Y110.207 E2.61895
G1 X242.328 Y105.400 E2.78753
G1 X242.294 Y104.773 E2.80309
G1 X247.728 Y110.207 E2.99365
G1 X248.320 Y110.207 E3.00833
G1 X242.274 Y104.162 E3.22032
G1 X242.255 Y103.551 E3.23547
G1 X248.912 Y110.207 E3.46889
G1 X249.503 Y110.207 E3.48357
G1 X242.263 Y102.967 E3.73746
G1 X242.281 Y102.393 E3.75170
G1 X250.095 Y110.207 E4.02571
G1 X250.687 Y110.207 E4.04039
G1 X242.299 Y101.819 E4.33453
G1 X242.337 Y101.265 E4.34831
G1 X251.467 Y110.395 E4.66849
G1 F2880
G1 X250.109 Y109.038 E2.76849
G1 E2.66849 F3000.00000
G92 E0
G1 X264.868 Y108.998 F3600.000
G1 E2.00000 F3000.00000
G1 F720
G1 X256.961 Y101.091 E2.27726
G1 X257.042 Y101.251 E2.28169
G1 X257.239 Y101.764 E2.29531
G1 X257.311 Y102.034 E2.30225
G1 X264.575 Y109.297 E2.55695
G1 X264.421 Y109.735 E2.56846
G1 X257.457 Y102.771 E2.81266
G1 X257.495 Y103.401 E2.82832
G1 X264.244 Y110.150 E3.06499
G1 X264.220 Y110.207 E3.06652
G1 X263.709 Y110.207 E3.07919
G1 X257.463 Y103.961 E3.29823
G1 X257.382 Y104.472 E3.31106
G1 X263.117 Y110.207 E3.51218
G1 X262.525 Y110.207 E3.52685
G1 X257.257 Y104.939 E3.71159
G1 X257.099 Y105.373 E3.72303
G1 X261.933 Y110.207 E3.89256
G1 X261.341 Y110.207 E3.90724
G1 X256.911 Y105.777 E4.06259
G1 X256.698 Y106.156 E4.07337
G1 X260.750 Y110.207 E4.21545
G1 X260.158 Y110.207 E4.23012
G1 X256.461 Y106.511 E4.35975
G1 X256.196 Y106.838 E4.37019
G1 X259.566 Y110.207 E4.48835
G1 X258.974 Y110.207 E4.50303
G1 X255.906 Y107.139 E4.61061
G1 X255.594 Y107.419 E4.62100
G1 X258.382 Y110.207 E4.71876
G1 X257.790 Y110.207 E4.73344
G1 X255.261 Y107.678 E4.82213
G1 X254.902 Y107.911 E4.83274
G1 X257.198 Y110.207 E4.91326
G1 X256.606 Y110.207 E4.92793
G1 X254.513 Y108.114 E5.00135
G1 X254.097 Y108.290 E5.01254
G1 X256.014 Y110.207 E5.07979
G1 X255.422 Y110.207 E5.09446
G1 X253.649 Y108.434 E5.15666
G1 X253.346 Y108.518 E5.16446
G1 X253.169 Y108.546 E5.16889
G1 X254.831 Y110.207 E5.22714
G1 X254.239 Y110.207 E5.24181
G1 X252.645 Y108.613 E5.29771
G1 X252.247 Y108.634 E5.30758
G1 X252.064 Y108.624 E5.31213
G1 X253.647 Y110.207 E5.36764
G1 X253.055 Y110.207 E5.38231
G1 X251.407 Y108.559 E5.44011
G1 X251.156 Y108.519 E5.44640
G1 X250.636 Y108.380 E5.45977
G1 X252.463 Y110.207 E5.52385
G1 X251.871 Y110.207 E5.53852
G1 X242.380 Y100.716 E5.87135
G1 X242.431 Y100.175 E5.88482
G1 X247.253 Y104.997 E6.05390
G1 X247.114 Y104.477 E6.06727
G1 X247.074 Y104.226 E6.07356
G1 X242.500 Y99.652 E6.23395
G1 X242.569 Y99.129 E6.24703
G1 X247.008 Y103.569 E6.40271
G1 X246.999 Y103.385 E6.40727
G1 X247.020 Y102.988 E6.41713
G1 X242.648 Y98.616 E6.57044
G1 X242.740 Y98.117 E6.58303
G1 X247.087 Y102.463 E6.73545
G1 X247.198 Y101.983 E6.74768
G1 X242.833 Y97.618 E6.90075
G1 X242.935 Y97.128 E6.91316
G1 X247.343 Y101.536 E7.06774
G1 X247.519 Y101.120 E7.07894
G1 X243.049 Y96.650 E7.23568
G1 X243.070 Y96.564 E7.23789
G1 X243.555 Y96.564 E7.24990
G1 X247.722 Y100.731 E7.39603
G1 X247.955 Y100.372 E7.40664
G1 X244.147 Y96.564 E7.54018
G1 X244.738 Y96.564 E7.55486
G1 X248.213 Y100.039 E7.67671
G1 X248.494 Y99.727 E7.68710
G1 X245.330 Y96.564 E7.79803
G1 X245.922 Y96.564 E7.81270
G1 X248.795 Y99.437 E7.91345
G1 X249.122 Y99.172 E7.92388
G1 X246.514 Y96.564 E8.01534
G1 X247.106 Y96.564 E8.03002
G1 X249.477 Y98.935 E8.11317
G1 X249.856 Y98.722 E8.12394
G1 X247.698 Y96.564 E8.19961
G1 X248.290 Y96.564 E8.21429
G1 X250.260 Y98.534 E8.28338
G1 X250.694 Y98.376 E8.29482
G1 X248.882 Y96.564 E8.35836
G1 X249.474 Y96.564 E8.37304
G1 X251.161 Y98.251 E8.43220
G1 X251.672 Y98.170 E8.44503
G1 X250.066 Y96.564 E8.50135
G1 X250.658 Y96.564 E8.51603
G1 X252.232 Y98.138 E8.57123
G1 X252.862 Y98.176 E8.58688
G1 X251.249 Y96.564 E8.64343
G1 X251.841 Y96.564 E8.65810
G1 X253.599 Y98.321 E8.71974
G1 X253.869 Y98.394 E8.72668
G1 X254.382 Y98.591 E8.74030
G1 X254.541 Y98.672 E8.74473
G1 X252.433 Y96.564 E8.81866
G1 X253.025 Y96.564 E8.83333
G1 X264.861 Y108.400 E9.24840
G1 X264.992 Y107.939 E9.26028
G1 X253.617 Y96.564 E9.65917
G1 X254.209 Y96.564 E9.67385
G1 X265.100 Y107.455 E10.05577
G1 X265.208 Y106.971 E10.06807
G1 X254.801 Y96.564 E10.43302
